X: 1
T: \"Appelbo G\aangl\aat
O: Trad
R: g\aangl\aat
S: Fiddle Hell Online 2022-4-2 handout for Swedish Jam led by Bronwyn Bird and Justin Nawn
Z: 2022 John Chambers <jc@trillian.mit.edu>
M: 2/4
L: 1/16
K: G
|: D2 \
| "G"G2GD G2B2 | d4 d2Bc | d2Bc d2de | "Am"(cd)cB A2AB |
| "D7"c2cd e2dc | "G"(Bc)BA G2FG | "D7"(AB)AF D2EF | "G"G4- G2 :|
|: Bd \
| "G"g2 g2 g2 fe | "D7"f2 f2 f2 gf | "C"e2e2 (eg)fe | "G"e2d^c d2ed |
| "Am"c2cB "D7"A2GA | "G"(Bc)BA "Em"G2FG | "D7"(AB)AF D2EF | "G"G4- G2 :|
